Newaita/actions/22/format-number-percent.svg

<svg height="22" viewBox="0 0 22 22" width="22" xmlns="http://www.w3.org/2000/svg"><g fill="#424242"><path d="m13.066406 1.304688.878906.234374c.242188.066407.386719.316407.320313.558594l-4.945313 18.449219c-.0625.242187-.3125.386719-.554687.324219l-.878906-.238282c-.242188-.0625-.386719-.3125-.320313-.554687l4.941406-18.453125c.066407-.242188.316407-.386719.558594-.320312zm0 0" fill-opacity=".984472"/><path d="m5.003906 4.71875c-1.765625 0-3.183594 1.625-3.183594 3.640625s1.417969 3.636719 3.183594 3.636719c1.761719 0 3.183594-1.621094 3.183594-3.636719s-1.421875-3.640625-3.183594-3.640625zm0 .910156c1.257813 0 2.273438 1.21875 2.273438 2.730469s-1.015625 2.726563-2.273438 2.726563c-1.261718 0-2.273437-1.214844-2.273437-2.726563s1.011719-2.730469 2.273437-2.730469zm0 0"/><path d="m16.828125 10.175781c-1.765625 0-3.183594 1.625-3.183594 3.640625s1.417969 3.636719 3.183594 3.636719c1.761719 0 3.183594-1.621094 3.183594-3.636719s-1.421875-3.640625-3.183594-3.640625zm0 .910157c1.257813 0 2.273437 1.21875 2.273437 2.730468 0 1.511719-1.015624 2.726563-2.273437 2.726563-1.261719 0-2.273437-1.214844-2.273437-2.726563 0-1.511718 1.011718-2.730468 2.273437-2.730468zm0 0"/></g></svg>

<?xml version="1.0" encoding="UTF-8"?>
<svg xmlns="http://www.w3.org/2000/svg" xmlns:xlink="http://www.w3.org/1999/xlink" width="22px" height="22px" viewBox="0 0 22 22" version="1.1">
<g id="surface1">
<path style=" stroke:none;fill-rule:nonzero;fill:rgb(25.882354%,25.882354%,25.882354%);fill-opacity:0.984472;" d="M 13.066406 1.304688 L 13.945312 1.539062 C 14.1875 1.605469 14.332031 1.855469 14.265625 2.097656 L 9.320312 20.546875 C 9.257812 20.789062 9.007812 20.933594 8.765625 20.871094 L 7.886719 20.632812 C 7.644531 20.570312 7.5 20.320312 7.566406 20.078125 L 12.507812 1.625 C 12.574219 1.382812 12.824219 1.238281 13.066406 1.304688 Z M 13.066406 1.304688 "/>
<path style=" stroke:none;fill-rule:nonzero;fill:rgb(25.882354%,25.882354%,25.882354%);fill-opacity:1;" d="M 5.003906 4.71875 C 3.238281 4.71875 1.820312 6.34375 1.820312 8.359375 C 1.820312 10.375 3.238281 11.996094 5.003906 11.996094 C 6.765625 11.996094 8.1875 10.375 8.1875 8.359375 C 8.1875 6.34375 6.765625 4.71875 5.003906 4.71875 Z M 5.003906 5.628906 C 6.261719 5.628906 7.277344 6.847656 7.277344 8.359375 C 7.277344 9.871094 6.261719 11.085938 5.003906 11.085938 C 3.742188 11.085938 2.730469 9.871094 2.730469 8.359375 C 2.730469 6.847656 3.742188 5.628906 5.003906 5.628906 Z M 5.003906 5.628906 "/>
<path style=" stroke:none;fill-rule:nonzero;fill:rgb(25.882354%,25.882354%,25.882354%);fill-opacity:1;" d="M 16.828125 10.175781 C 15.0625 10.175781 13.644531 11.800781 13.644531 13.816406 C 13.644531 15.832031 15.0625 17.453125 16.828125 17.453125 C 18.589844 17.453125 20.011719 15.832031 20.011719 13.816406 C 20.011719 11.800781 18.589844 10.175781 16.828125 10.175781 Z M 16.828125 11.085938 C 18.085938 11.085938 19.101562 12.304688 19.101562 13.816406 C 19.101562 15.328125 18.085938 16.542969 16.828125 16.542969 C 15.566406 16.542969 14.554688 15.328125 14.554688 13.816406 C 14.554688 12.304688 15.566406 11.085938 16.828125 11.085938 Z M 16.828125 11.085938 "/>
</g>
</svg>
